X: 1
T: The Singing Bird
R: air
Z: John Chambers <jc@trillian.mit.edu>
M: 4/4
L: 1/8
K: G
[| DGE \
| "G"D3E "Em"G2AB | "Am"c3B "D"A2GA | "G"BAGE D2D2 | D4- "D7"DFGE \
| "G"D3E "Em"G2AB | "Am"c3B "D"A2GA | "G"BAGE "D7"D2D2 | "G"G6 |]
[| Bc \
| "Bm"d3B "Em"e3d | "Am"c2c2 "D7"c2c2 | "G"B2G2 "Am"c2B2 | "D7"B2A3 FGE \
| "G"D3E "Em"G2AB | "Am"c3B "D"A2GA | "G"BAGE "D7"D2D2 | "G"G6 |]
